dist/svg/static/code-large.svg

<svg xmlns="http://www.w3.org/2000/svg" width="48" height="48" viewBox="0 0 48 48"><g fill="none" stroke="currentColor" stroke-miterlimit="10"><path d="M36.5 36.5h6v6h-6zM26.5 36.5h6v6h-6zM36.5 26.5h6v6h-6zM26.5 26.5h6v6h-6z"/><g><path d="M9.5 30.5h8v8h-8z"/><path d="M21.5 42.5h-16v-16h13a3 3 0 0 1 3 3v13z"/></g><g><path d="M30.5 9.5h8v8h-8z"/><path d="M42.5 21.5h-13a3 3 0 0 1-3-3v-13h16v16z"/></g><g><path d="M9.5 9.5h8v8h-8z"/><path d="M18.5 21.5h-13v-16h16v13a3 3 0 0 1-3 3z"/></g></g></svg>

<?xml version="1.0" encoding="UTF-8" standalone="no"?>
<svg width="48px" height="48px" viewBox="0 0 48 48" version="1.1" xmlns="http://www.w3.org/2000/svg" xmlns:xlink="http://www.w3.org/1999/xlink">
    <!-- Generator: sketchtool 46.2 (44496) - http://www.bohemiancoding.com/sketch -->
    <title>code-large</title>
    <desc>Created with sketchtool.</desc>
    <defs></defs>
    <g id="icons-published" stroke="none" stroke-width="1" fill="none" fill-rule="evenodd">
        <g id="briefing" transform="translate(0.000000, -410.000000)"></g>
        <g id="code-large" stroke="#000000">
            <path d="M36.5,36.5 L42.5,36.5 L42.5,42.5 L36.5,42.5 L36.5,36.5 Z M26.5,36.5 L32.5,36.5 L32.5,42.5 L26.5,42.5 L26.5,36.5 Z M36.5,26.5 L42.5,26.5 L42.5,32.5 L36.5,32.5 L36.5,26.5 Z M26.5,26.5 L32.5,26.5 L32.5,32.5 L26.5,32.5 L26.5,26.5 Z" id="Shape"></path>
            <polygon id="Shape" points="9.5 30.5 17.5 30.5 17.5 38.5 9.5 38.5"></polygon>
            <path d="M21.5,42.5 L5.5,42.5 L5.5,26.5 L18.5,26.5 C20.2,26.5 21.5,27.8 21.5,29.5 L21.5,42.5 Z" id="Shape"></path>
            <polygon id="Shape" points="30.5 9.5 38.5 9.5 38.5 17.5 30.5 17.5"></polygon>
            <path d="M42.5,21.5 L29.5,21.5 C27.8,21.5 26.5,20.2 26.5,18.5 L26.5,5.5 L42.5,5.5 L42.5,21.5 Z" id="Shape"></path>
            <polygon id="Shape" points="9.5 9.5 17.5 9.5 17.5 17.5 9.5 17.5"></polygon>
            <path d="M18.5,21.5 L5.5,21.5 L5.5,5.5 L21.5,5.5 L21.5,18.5 C21.5,20.2 20.2,21.5 18.5,21.5 Z" id="Shape"></path>
        </g>
    </g>
</svg>
